X:340
T: SOLDAT KAM AUS DEM KRIEGE
N: E0191
O: Europa, Mitteleuropa, Deutschland, Oldenburg
R: erzaehlendes Volks - Lied, Sage, Familien - Geschichte
M: 6/8
L: 1/8
K: G
D | G2GBAG | A2ddcA | B3z2
D | G2GBAG | A2ddcA | B3z2
B | B2GGAB | d2cc2
c | c2AABc | e2dd2c | Bd
BAcA | G3e3 | d2ddcA | G3z2

@@@ Tune index: 3990
